X:410
T: BRUEDER AUF DIE FREUDE WINCKT UNS
N: F0751
O: Europa, Mitteleuropa, Deutschland
R: Geselligkeits -, Trink -, Jugend -, Vereins - Lied
M: 6/8
L: 1/8
K: Bb
 | B,2DF2F | B2cd2B
f2ed2c | B2cd2B
c2fc2A | BAGF3
c2ed2B | A2cB2F
c2ed2B | A2cB2F
e2dc2B | A2Bc3
B2FG2E | C2FB,3
AGABcd | cBAB3

